assets/sonr-icons/plus-circle.svg

<svg xmlns="http://www.w3.org/2000/svg" width="24" height="24" fill="none" viewBox="0 0 24 24"><path fill="#000" d="M13 8C13 7.448 12.552 7 12 7C11.448 7 11 7.448 11 8V11H8C7.448 11 7 11.448 7 12C7 12.552 7.448 13 8 13H11V16C11 16.552 11.448 17 12 17C12.552 17 13 16.552 13 16V13H16C16.552 13 17 12.552 17 12C17 11.448 16.552 11 16 11H13V8Z"/><path fill="#000" fill-rule="evenodd" d="M12 2C6.478 2 2 6.477 2 12C2 17.523 6.477 22 12 22C17.523 22 22 17.523 22 12C22 6.478 17.522 2 12 2ZM4 12C4 7.582 7.582 4 12 4C16.418 4 20 7.582 20 12C20 16.418 16.418 20 12 20C7.582 20 4 16.418 4 12Z" clip-rule="evenodd"/></svg>

<svg xmlns="http://www.w3.org/2000/svg" width="24" height="24" fill="none"><path fill="currentColor" d="M13 8a1 1 0 0 0-2 0v3H8a1 1 0 0 0 0 2h3v3a1 1 0 0 0 2 0v-3h3a1 1 0 0 0 0-2h-3z"/><path fill="currentColor" fill-rule="evenodd" d="M12 2C6.478 2 2 6.477 2 12s4.477 10 10 10 10-4.477 10-10S17.522 2 12 2M4 12a8 8 0 1 1 16 0 8 8 0 0 1-16 0" clip-rule="evenodd"/></svg>
